packages/symbols/svgs/duotone/circle-question-duotone.svg

<svg width="24" height="24" viewBox="0 0 24 24" fill="none" xmlns="http://www.w3.org/2000/svg">
<g clip-path="url(#clip0_1068_7763)">
<path opacity="0.5" fill-rule="evenodd" clip-rule="evenodd" d="M12 2C6.47715 2 2 6.47715 2 12C2 17.5228 6.47715 22 12 22C17.5228 22 22 17.5228 22 12C22 6.47715 17.5228 2 12 2ZM0 12C0 5.37258 5.37258 0 12 0C18.6274 0 24 5.37258 24 12C24 18.6274 18.6274 24 12 24C5.37258 24 0 18.6274 0 12Z" fill="black"/>
<path fill-rule="evenodd" clip-rule="evenodd" d="M10.2572 7.47467C11.1017 7.10148 12.0665 6.9424 12.8824 7.019C13.7229 7.09789 14.2142 7.3987 14.4193 7.73067C14.9156 8.53368 14.7199 9.65302 13.3946 10.7761C11.9126 12.0318 11 12.9928 11 14.5C11 15.0523 11.4477 15.5 12 15.5C12.5523 15.5 13 15.0523 13 14.5C13 14.0072 13.1694 13.5882 14.6875 12.3019C16.3621 10.883 17.3745 8.70831 16.1207 6.67933C15.4509 5.5953 14.2237 5.13611 13.0694 5.02775C11.8906 4.9171 10.5844 5.14352 9.44883 5.64533C8.94367 5.86857 8.71513 6.45905 8.93837 6.96421C9.16161 7.46936 9.75209 7.6979 10.2572 7.47467ZM13 18C13 18.5523 12.5523 19 12 19C11.4477 19 11 18.5523 11 18C11 17.4477 11.4477 17 12 17C12.5523 17 13 17.4477 13 18Z" fill="black"/>
</g>
<defs>
<clipPath id="clip0_1068_7763">
<rect width="24" height="24" fill="white"/>
</clipPath>
</defs>
</svg>

<svg width="24" height="24" viewBox="0 0 24 24" xmlns="http://www.w3.org/2000/svg"><g clip-path="url(#a)" fill-rule="evenodd" clip-rule="evenodd"><path opacity=".5" d="M12 2C6.477 2 2 6.477 2 12s4.477 10 10 10 10-4.477 10-10S17.523 2 12 2ZM0 12C0 5.373 5.373 0 12 0s12 5.373 12 12-5.373 12-12 12S0 18.627 0 12Z"/><path d="M10.257 7.475c.845-.374 1.81-.533 2.625-.456.84.079 1.332.38 1.537.712.497.803.3 1.922-1.024 3.045C11.913 12.032 11 12.993 11 14.5a1 1 0 1 0 2 0c0-.493.17-.912 1.688-2.198 1.674-1.419 2.687-3.594 1.433-5.623-.67-1.084-1.897-1.543-3.052-1.651-1.178-.11-2.485.116-3.62.617a1 1 0 0 0 .808 1.83ZM13 18a1 1 0 1 1-2 0 1 1 0 0 1 2 0Z"/></g><defs><clipPath id="a"><path fill="#fff" d="M0 0h24v24H0z"/></clipPath></defs></svg>
